X:11136
T:Month of May. BF13.029
M:6/8
L:1/8
Q:120
C:In hand "B"
S:MS13,c1850,Lakes,Browne Coll.
R:Jig
O:England
A:Lakes
N:* Not clear - could also be a badly drawn bar line. Cherri G.
Z:vmp.Cherri Graebe.
K:A major
E2|:A2A AGA|B2cd2e|f2e ecA|AGA BGE|!
A2A AGA|B2cd2e|1f2e edc|B2AG2A:|2f2e ede|"!"e2f g2a|!
|:BcBB2c|d2e cde|a2ea2e|dcB"*"e3|!
BcB B2c|d2e cde|a2e efe|d2cB2A:||
W:Bar 10 (e2fga) in ms. CGP |]
